X:1836
T:River John Sunset Waltz
T:Saint John River Waltz
C:Florence Killen
D:Maine French Fiddlers, "In Memere's Kitchen"
R:Waltz
L:1/8
M:3/4
N: Dotted note pairs are played lightly dotted
Z:Thanks to Jim OÕNeil from Nova Scotia for pointing out
Z:the correct name and composer in a web site comment!
Z:<http://tunes.nhcountrydance.com>.
K:D
G F>E [| "D" D3 E F>G | "D7" A2 F2 D2 | "G" G3 F G>B | "Em" d3 e d>B |
"D"A3 B A>G | "Bm" F2 G2 F2 | "Em" E4-E>F | "A7" E3 E F>E |
"D" D3 E F>G | "D7" A2 F2 D2 | "G" G3 F G>B | "Em" d3 e d>B |
"D"A3 B A>F | "A7" E2 F2 ((3EFE) | "D" D4-D>E | D3 |]
[|B A>G | "D" F3 A d>e | "D7" f2 g2 a2 | "G" g3 a ((3gfe) | "Em" B3 d c>B |
"D" A2 d3 d | "Bm" d2 e2 f2 | "Em" e4-e>f | "A7" e3 B A>G |
"D" F3 A d>e | "D7" f2 g2 a2 | "G" g3 a ((3gfe) | "Em" B3 d c>B |
"D" A2 d3 f | "A7" e2 f(g/2f/2) e2 | "D" d6 | d3 E F>E |]

